X: 35065
T: Rolling In The Muck
R: reel
M: 4/4
K: Gmajor
E2 GE BEGE|cEBE AGEG|C2 EC GCEC|D2 FD ADFA|
B,E (3EGE B,E (3EGE|BAGA BE (3EBE|E2 GE BEGE|cEBE AGEG|
C2 EC GCEC|B,2 EB, GB,EB,|(3DDD DE D2 FA|BAGF E4:|
g2 ga gfeg|f2 fe fedA|Be (3ege Be (3ege|edfd gdad|
bg (3gbg gfeg|f2 fe fedA|Be (3ege Be (3ege|BAGF E4:|

